X: 6029
T: Cap And Bells
R: reel
M: 4/4
K: Dmajor
dF (3FFF fdec|dfec dAFA|Be (3eee BeGB|gefd ecAc|
dF (3FFF fdec|dcAF ~G3E|FAde fdeg|1 fdec Addc:|2 fdec Adde||
|:fa~a2 afdf|bfaf gfed|Be (3eee gfed|cebg afge|
fa~a2 fdde|fdec dcAF|~G3B efge|1 fdec Adde:|2 fdec Addc||

